X: 10629
T: Dowie Dens Of Yarrow, The
R: waltz
M: 3/4
K: Ddorian
D|"Dm" DA A2>F2|"Am" E>D "Dm" D2 z d|de f2 ed|"C" cG "F" A2 zc|
cd c2 A2|"C" GE/D/ "Am" C z D/E/|"Dm" FD "F" A2 GF|"Am" E>C "Dm" D2 z|

